X: 642
M:4/4
L:1/4
K:G
b/a/ | g>agB | d/B/d/e/db/a/ | g>agB | A2Ab/a/ | g>agB | d/B/d/e/ db/a/ | gedB | G2G ||
e | dGB/c/d/B/ | dBg>e | dGB/c/d/B/ | A2Ae | dGB/c/d/B/ | dGg>a | b/a/g/e/ g/e/d/B/ | G2G ||

